Numix-Circle/48x48/apps/cantor.svg

<?xml version="1.0" encoding="UTF-8" standalone="no"?>
<svg
   xmlns:dc="http://purl.org/dc/elements/1.1/"
   xmlns:cc="http://creativecommons.org/ns#"
   xmlns:rdf="http://www.w3.org/1999/02/22-rdf-syntax-ns#"
   xmlns:svg="http://www.w3.org/2000/svg"
   xmlns="http://www.w3.org/2000/svg"
   xmlns:xlink="http://www.w3.org/1999/xlink"
   xmlns:sodipodi="http://sodipodi.sourceforge.net/DTD/sodipodi-0.dtd"
   xmlns:inkscape="http://www.inkscape.org/namespaces/inkscape"
   viewBox="0 0 48 48"
   id="svg2"
   version="1.1"
   inkscape:version="0.91 r13725"
   width="100%"
   height="100%"
   sodipodi:docname="cantor.svg">
  <metadata
     id="metadata65">
    <rdf:RDF>
      <cc:Work
         rdf:about="">
        <dc:format>image/svg+xml</dc:format>
        <dc:type
           rdf:resource="http://purl.org/dc/dcmitype/StillImage" />
        <dc:title />
      </cc:Work>
    </rdf:RDF>
  </metadata>
  <sodipodi:namedview
     pagecolor="#ffffff"
     bordercolor="#666666"
     borderopacity="1"
     objecttolerance="10000"
     gridtolerance="10000"
     guidetolerance="10000"
     inkscape:pageopacity="0"
     inkscape:pageshadow="2"
     inkscape:window-width="1366"
     inkscape:window-height="713"
     id="namedview63"
     showgrid="false"
     inkscape:zoom="1"
     inkscape:cx="-2.549914"
     inkscape:cy="24.569876"
     inkscape:window-x="0"
     inkscape:window-y="28"
     inkscape:window-maximized="1"
     inkscape:current-layer="svg2"
     showguides="true"
     inkscape:guide-bbox="true">
    <inkscape:grid
       type="xygrid"
       id="grid3847" />
  </sodipodi:namedview>
  <defs
     id="defs4">
    <linearGradient
       id="linearGradient3839">
      <stop
         style="stop-color:#7d4972;stop-opacity:1"
         offset="0"
         id="stop3841" />
      <stop
         style="stop-color:#8a507e;stop-opacity:1"
         offset="1"
         id="stop3843" />
    </linearGradient>
    <linearGradient
       inkscape:collect="always"
       xlink:href="#linearGradient3839"
       id="linearGradient3845"
       x1="24"
       y1="47"
       x2="24"
       y2="1"
       gradientUnits="userSpaceOnUse" />
  </defs>
  <g
     id="g21">
    <path
       d="m 36.31 5 c 5.859 4.062 9.688 10.831 9.688 18.5 c 0 12.426 -10.07 22.5 -22.5 22.5 c -7.669 0 -14.438 -3.828 -18.5 -9.688 c 1.037 1.822 2.306 3.499 3.781 4.969 c 4.085 3.712 9.514 5.969 15.469 5.969 c 12.703 0 23 -10.298 23 -23 c 0 -5.954 -2.256 -11.384 -5.969 -15.469 c -1.469 -1.475 -3.147 -2.744 -4.969 -3.781 z m 4.969 3.781 c 3.854 4.113 6.219 9.637 6.219 15.719 c 0 12.703 -10.297 23 -23 23 c -6.081 0 -11.606 -2.364 -15.719 -6.219 c 4.16 4.144 9.883 6.719 16.219 6.719 c 12.703 0 23 -10.298 23 -23 c 0 -6.335 -2.575 -12.06 -6.719 -16.219 z"
       opacity="0.05"
       id="path23" />
    <path
       d="m 41.28 8.781 c 3.712 4.085 5.969 9.514 5.969 15.469 c 0 12.703 -10.297 23 -23 23 c -5.954 0 -11.384 -2.256 -15.469 -5.969 c 4.113 3.854 9.637 6.219 15.719 6.219 c 12.703 0 23 -10.298 23 -23 c 0 -6.081 -2.364 -11.606 -6.219 -15.719 z"
       opacity="0.1"
       id="path25" />
    <path
       d="m 31.25 2.375 c 8.615 3.154 14.75 11.417 14.75 21.13 c 0 12.426 -10.07 22.5 -22.5 22.5 c -9.708 0 -17.971 -6.135 -21.12 -14.75 a 23 23 0 0 0 44.875 -7 a 23 23 0 0 0 -16 -21.875 z"
       opacity="0.2"
       id="path27" />
  </g>
  <g
     id="g29">
    <path
       d="m 24 1 c 12.703 0 23 10.297 23 23 c 0 12.703 -10.297 23 -23 23 -12.703 0 -23 -10.297 -23 -23 0 -12.703 10.297 -23 23 -23 z"
       fill="url(#linearGradient3764)"
       fill-opacity="1"
       id="path31"
       style="fill:url(#linearGradient3845);fill-opacity:1.0" />
  </g>
  <g
     id="g33" />
  <g
     id="g59">
    <path
       d="m 40.03 7.531 c 3.712 4.084 5.969 9.514 5.969 15.469 0 12.703 -10.297 23 -23 23 c -5.954 0 -11.384 -2.256 -15.469 -5.969 4.178 4.291 10.01 6.969 16.469 6.969 c 12.703 0 23 -10.298 23 -23 0 -6.462 -2.677 -12.291 -6.969 -16.469 z"
       opacity="0.1"
       id="path61" />
  </g>
  <g
     transform="scale(0.98451788,1.0157256)"
     style="font-size:13.6171217px;font-style:normal;font-weight:normal;line-height:125%;letter-spacing:0px;word-spacing:0px;fill:#000000;fill-opacity:1;stroke:none;font-family:Sans"
     id="text3880" />
  <g
     transform="scale(1.0060815,0.99395525)"
     style="font-size:19.87910461px;font-style:normal;font-variant:normal;font-weight:normal;font-stretch:normal;line-height:125%;letter-spacing:0px;word-spacing:0px;fill:#000000;fill-opacity:1;stroke:none;font-family:Montserrat;-inkscape-font-specification:Montserrat"
     id="text3023" />
  <g
     transform="matrix(1.0296335,0,0,0.97121938,-0.03651564,2.4817894e-7)"
     style="font-size:18.98816872px;font-style:normal;font-variant:normal;font-weight:normal;font-stretch:normal;line-height:125%;letter-spacing:0px;word-spacing:0px;fill:#000000;fill-opacity:1;stroke:none;font-family:Montserrat;-inkscape-font-specification:Montserrat"
     id="text3791" />
  <path
     id="path4899"
     d="m 23,12 -0.673828,3.373047 c -0.792187,0.219598 -1.544045,0.529127 -2.244141,0.925781 l -2.859375,-1.90625 -2.830078,2.830078 1.90625,2.859375 c -0.396654,0.700096 -0.706183,1.451954 -0.925781,2.244141 L 12,23 l 0,4 3.373047,0.673828 c 0.219598,0.792187 0.529127,1.544045 0.925781,2.244141 l -1.90625,2.859375 2.830078,2.830078 2.859375,-1.90625 c 0.700096,0.396654 1.451954,0.706183 2.244141,0.925781 L 23,38 l 4,0 0.673828,-3.373047 c 0.792187,-0.219598 1.544045,-0.529127 2.244141,-0.925781 l 2.859375,1.90625 2.830078,-2.830078 -1.90625,-2.859375 c 0.396654,-0.700096 0.706183,-1.451954 0.925781,-2.244141 L 38,27 38,23 34.626953,22.326172 c -0.219598,-0.792187 -0.529127,-1.544045 -0.925781,-2.244141 l 1.90625,-2.859375 -2.830078,-2.830078 -2.859375,1.90625 C 29.217873,15.902174 28.466015,15.592645 27.673828,15.373047 L 27,12 23,12 Z m 2,10 a 3,3 0 0 1 3,3 3,3 0 0 1 -3,3 3,3 0 0 1 -3,-3 3,3 0 0 1 3,-3 z"
     style="opacity:1;fill:#000000;fill-opacity:0.09803922;fill-rule:nonzero;stroke:none;stroke-width:1.5;stroke-miterlimit:4;stroke-dasharray:none;stroke-dashoffset:0;stroke-opacity:1"
     inkscape:connector-curvature="0" />
  <path
     style="opacity:1;fill:#c8c8c8;fill-opacity:1;fill-rule:nonzero;stroke:none;stroke-width:1.5;stroke-miterlimit:4;stroke-dasharray:none;stroke-dashoffset:0;stroke-opacity:1"
     d="M 22 11 L 21.326172 14.373047 C 20.533985 14.592645 19.782127 14.902174 19.082031 15.298828 L 16.222656 13.392578 L 13.392578 16.222656 L 15.298828 19.082031 C 14.902174 19.782127 14.592645 20.533985 14.373047 21.326172 L 11 22 L 11 26 L 14.373047 26.673828 C 14.592645 27.466015 14.902174 28.217873 15.298828 28.917969 L 13.392578 31.777344 L 16.222656 34.607422 L 19.082031 32.701172 C 19.782127 33.097826 20.533985 33.407355 21.326172 33.626953 L 22 37 L 26 37 L 26.673828 33.626953 C 27.466015 33.407355 28.217873 33.097826 28.917969 32.701172 L 31.777344 34.607422 L 34.607422 31.777344 L 32.701172 28.917969 C 33.097826 28.217873 33.407355 27.466015 33.626953 26.673828 L 37 26 L 37 22 L 33.626953 21.326172 C 33.407355 20.533985 33.097826 19.782127 32.701172 19.082031 L 34.607422 16.222656 L 31.777344 13.392578 L 28.917969 15.298828 C 28.217873 14.902174 27.466015 14.592645 26.673828 14.373047 L 26 11 L 22 11 z M 24 21 A 3 3 0 0 1 27 24 A 3 3 0 0 1 24 27 A 3 3 0 0 1 21 24 A 3 3 0 0 1 24 21 z "
     id="path4837" />
</svg>

<svg xmlns="http://www.w3.org/2000/svg" viewBox="0 0 48 48">
 <defs>
  <linearGradient id="linearGradient3845" y1="47" x2="0" y2="1" gradientUnits="userSpaceOnUse">
   <stop style="stop-color:#7d4972;stop-opacity:1"/>
   <stop offset="1" style="stop-color:#8a507e;stop-opacity:1"/>
  </linearGradient>
 </defs>
 <g>
  <path d="m 36.31 5 c 5.859 4.062 9.688 10.831 9.688 18.5 c 0 12.426 -10.07 22.5 -22.5 22.5 c -7.669 0 -14.438 -3.828 -18.5 -9.688 c 1.037 1.822 2.306 3.499 3.781 4.969 c 4.085 3.712 9.514 5.969 15.469 5.969 c 12.703 0 23 -10.298 23 -23 c 0 -5.954 -2.256 -11.384 -5.969 -15.469 c -1.469 -1.475 -3.147 -2.744 -4.969 -3.781 z m 4.969 3.781 c 3.854 4.113 6.219 9.637 6.219 15.719 c 0 12.703 -10.297 23 -23 23 c -6.081 0 -11.606 -2.364 -15.719 -6.219 c 4.16 4.144 9.883 6.719 16.219 6.719 c 12.703 0 23 -10.298 23 -23 c 0 -6.335 -2.575 -12.06 -6.719 -16.219 z" style="opacity:0.05"/>
  <path d="m 41.28 8.781 c 3.712 4.085 5.969 9.514 5.969 15.469 c 0 12.703 -10.297 23 -23 23 c -5.954 0 -11.384 -2.256 -15.469 -5.969 c 4.113 3.854 9.637 6.219 15.719 6.219 c 12.703 0 23 -10.298 23 -23 c 0 -6.081 -2.364 -11.606 -6.219 -15.719 z" style="opacity:0.1"/>
  <path d="m 31.25 2.375 c 8.615 3.154 14.75 11.417 14.75 21.13 c 0 12.426 -10.07 22.5 -22.5 22.5 c -9.708 0 -17.971 -6.135 -21.12 -14.75 a 23 23 0 0 0 44.875 -7 a 23 23 0 0 0 -16 -21.875 z" style="opacity:0.2"/>
 </g>
 <g>
  <path d="m 24 1 c 12.703 0 23 10.297 23 23 c 0 12.703 -10.297 23 -23 23 -12.703 0 -23 -10.297 -23 -23 0 -12.703 10.297 -23 23 -23 z" style="fill:url(#linearGradient3845);fill-opacity:1"/>
 </g>
 <g>
  <path d="m 40.03 7.531 c 3.712 4.084 5.969 9.514 5.969 15.469 0 12.703 -10.297 23 -23 23 c -5.954 0 -11.384 -2.256 -15.469 -5.969 4.178 4.291 10.01 6.969 16.469 6.969 c 12.703 0 23 -10.298 23 -23 0 -6.462 -2.677 -12.291 -6.969 -16.469 z" style="opacity:0.1"/>
 </g>
 <path d="m 23 12 -0.674 3.373 c -0.792 0.22 -1.544 0.529 -2.244 0.926 l -2.859 -1.906 -2.83 2.83 1.906 2.859 c -0.397 0.7 -0.706 1.452 -0.926 2.244 l -3.373 0.674 l 0 4 3.373 0.674 c 0.22 0.792 0.529 1.544 0.926 2.244 l -1.906 2.859 2.83 2.83 2.859 -1.906 c 0.7 0.397 1.452 0.706 2.244 0.926 l 0.674 3.373 l 4 0 0.674 -3.373 c 0.792 -0.22 1.544 -0.529 2.244 -0.926 l 2.859 1.906 2.83 -2.83 -1.906 -2.859 c 0.397 -0.7 0.706 -1.452 0.926 -2.244 l 3.373 -0.674 0 -4 -3.373 -0.674 c -0.22 -0.792 -0.529 -1.544 -0.926 -2.244 l 1.906 -2.859 -2.83 -2.83 -2.859 1.906 c -0.7 -0.397 -1.452 -0.706 -2.244 -0.926 l -0.674 -3.373 -4 0 m 2 10 a 3 3 0 0 1 3 3 3 3 0 0 1 -3 3 3 3 0 0 1 -3 -3 3 3 0 0 1 3 -3 z" style="fill:#000;opacity:1;fill-opacity:0.098;stroke:none;fill-rule:nonzero"/>
 <path d="m 22 11 l -0.674 3.373 c -0.792 0.22 -1.544 0.529 -2.244 0.926 l -2.859 -1.906 l -2.83 2.83 l 1.906 2.859 c -0.397 0.7 -0.706 1.452 -0.926 2.244 l -3.373 0.674 l 0 4 l 3.373 0.674 c 0.22 0.792 0.529 1.544 0.926 2.244 l -1.906 2.859 l 2.83 2.83 l 2.859 -1.906 c 0.7 0.397 1.452 0.706 2.244 0.926 l 0.674 3.373 l 4 0 l 0.674 -3.373 c 0.792 -0.22 1.544 -0.529 2.244 -0.926 l 2.859 1.906 l 2.83 -2.83 l -1.906 -2.859 c 0.397 -0.7 0.706 -1.452 0.926 -2.244 l 3.373 -0.674 l 0 -4 l -3.373 -0.674 c -0.22 -0.792 -0.529 -1.544 -0.926 -2.244 l 1.906 -2.859 l -2.83 -2.83 l -2.859 1.906 c -0.7 -0.397 -1.452 -0.706 -2.244 -0.926 l -0.674 -3.373 l -4 0 z m 2 10 a 3 3 0 0 1 3 3 a 3 3 0 0 1 -3 3 a 3 3 0 0 1 -3 -3 a 3 3 0 0 1 3 -3 z" style="fill:#c8c8c8;opacity:1;fill-opacity:1;stroke:none;fill-rule:nonzero"/>
</svg>
